X: 697
T: Planxty Madam Crofton
R:
C:O'Carolan
B:O'Neill's 697
N:"Spirited"
N:There appears to be a missing repeat mark at the end.
D:
Z: 1997 by John Chambers <jc@trillian.mit.edu>
M:C
L:1/8
K:Em
egfe dz Bz | cBAc Bz Az | BGAF GEF^D | EFGA B2-Bz |
| Be^de fz fz | edcB gz gz | agfg az az | baga bz bz |
| (bc')(a^d') (e'b)(c'b) | (ab)(ga) (fg)(af) | (gb)(ac') (bd')(e'c') | b2~a>g g2za |
| (gc')(ba) (ga)(gf) | (eg)(fe) =dz Bz | (cB)(Ac) (B^d)(e>B) | (AG)({G}~F>E) E2Ez :|
|: Bz Az Gz Fz | EFGA B2Bz | (Be)(^df) (eg)(fa) | {ga}b3a g2za |
| {g}bz {g}b2 BGEG | {b}d'z {b}d'2 dBGB | {f}az {f}a2 AFDF | gfe>f d2ze |
| dz b2 (agfe) | dz b2 (agfe) | ^d^cBd eBGB | AGF>E E2z2 |]


